X: 17
T: 17. Music Maid
M: 2/4
L: 1/8
Q: 1/4=140
K: F
fgfc | AF c2 | dbgf | e/f/g/e/ c2 | fgfc | AF c2 | dbgf | f2 F2 :|!
|: g>agf | ec g2 | afdc | =B/c/d/B/ G2 | g>agf | ec g2 | afd=B | c2 C2 :|!
|:dB {a}b2 | cA {g}a2 | bagf | e/f/g/e/ c2 | dB {a}b2 | cA {g}a2 | bg e/f/g/e/ | f2 F2 :|!

